X: 24682
T: MacLeod And MacKay
R: hornpipe
M: 4/4
K: Gmajor
dc|BGFG DGFG|E^GABc2ed|cA^GA EAGA|FAd^c d=cBA|
BGFG DGFG|E^GABc2ed|cBAG FDEF|1 AGDB,G,2dc:|2 AGDB,G,2dc||
|:Bgfg dBGB|ca^ga ecAc|Bgfg dBGB|Ad^cd AFD=c|
Bgfg dBGB|ca^ga ecAc|BgdB AecA|1 FDEFG2dc:|2 FDEFG2||

